X:142
T:Fans k\^onster, sa Granlundsgubben om {\aa}ngb{\aa}ten
R:sl\"angpolska
H:efter Per Ericsson i Granlund, Helgar\"o
A:S\"ormland
B:Folkmusik fr{\aa}n norra S\"odermanland, K.P. Leffler
Z:id:hn-sp-142
M:3/4
L:1/16
K:G
[G2G,2]Bd g2gf g2e2 | agfe d4 e4 | c2cd B2Bc A2Ac |
BAGF G2D2 B,2D2 | [G2G,2]Bd g2gf g2e2 | agfe d4 e4 |
c2cd B2Bc A2Ac | BAGF G4 G,4 :||: G2B2 B2AB A4 |
A2c2 c2Bc B4 | B2d2 d2Bd [d4D4] | ^c2e2 e2c2 d4 |
d2ef g2d2 B2G2 | AcAF G4 G,4 :|
<end>
<start>
